images/3233843.svg

<?xml version="1.0" encoding="UTF-8"?>
<svg xmlns="http://www.w3.org/2000/svg" xmlns:xlink="http://www.w3.org/1999/xlink" width="300pt" height="300pt" viewBox="0 0 300 300" version="1.1">
<defs>
<g>
<symbol overflow="visible" id="glyph0-0">
<path style="stroke:none;" d="M 0.453125 1.59375 L 0.453125 -6.34375 L 4.953125 -6.34375 L 4.953125 1.59375 Z M 0.953125 1.09375 L 4.453125 1.09375 L 4.453125 -5.84375 L 0.953125 -5.84375 Z M 0.953125 1.09375 "/>
</symbol>
<symbol overflow="visible" id="glyph0-1">
<path style="stroke:none;" d="M 0.890625 -6.5625 L 2.078125 -6.5625 L 4.984375 -1.078125 L 4.984375 -6.5625 L 5.84375 -6.5625 L 5.84375 0 L 4.65625 0 L 1.75 -5.484375 L 1.75 0 L 0.890625 0 Z M 0.890625 -6.5625 "/>
</symbol>
<symbol overflow="visible" id="glyph0-2">
<path style="stroke:none;" d="M 0.890625 -6.5625 L 1.765625 -6.5625 L 1.765625 -3.875 L 5 -3.875 L 5 -6.5625 L 5.890625 -6.5625 L 5.890625 0 L 5 0 L 5 -3.125 L 1.765625 -3.125 L 1.765625 0 L 0.890625 0 Z M 0.890625 -6.5625 "/>
</symbol>
<symbol overflow="visible" id="glyph0-3">
<path style="stroke:none;" d="M 3.546875 -5.953125 C 2.898438 -5.953125 2.382812 -5.710938 2 -5.234375 C 1.625 -4.753906 1.4375 -4.101562 1.4375 -3.28125 C 1.4375 -2.445312 1.625 -1.789062 2 -1.3125 C 2.382812 -0.832031 2.898438 -0.59375 3.546875 -0.59375 C 4.191406 -0.59375 4.703125 -0.832031 5.078125 -1.3125 C 5.453125 -1.789062 5.640625 -2.445312 5.640625 -3.28125 C 5.640625 -4.101562 5.453125 -4.753906 5.078125 -5.234375 C 4.703125 -5.710938 4.191406 -5.953125 3.546875 -5.953125 Z M 3.546875 -6.6875 C 4.460938 -6.6875 5.195312 -6.375 5.75 -5.75 C 6.300781 -5.132812 6.578125 -4.3125 6.578125 -3.28125 C 6.578125 -2.238281 6.300781 -1.410156 5.75 -0.796875 C 5.195312 -0.179688 4.460938 0.125 3.546875 0.125 C 2.617188 0.125 1.878906 -0.179688 1.328125 -0.796875 C 0.773438 -1.410156 0.5 -2.238281 0.5 -3.28125 C 0.5 -4.3125 0.773438 -5.132812 1.328125 -5.75 C 1.878906 -6.375 2.617188 -6.6875 3.546875 -6.6875 Z M 3.546875 -6.6875 "/>
</symbol>
</g>
</defs>
<g id="surface33041">
<rect x="0" y="0" width="300" height="300" style="fill:rgb(100%,100%,100%);fill-opacity:1;stroke:none;"/>
<path style="fill:none;stroke-width:1.2;stroke-linecap:butt;stroke-linejoin:miter;stroke:rgb(0%,0%,0%);stroke-opacity:1;stroke-miterlimit:10;" d="M 35.25 82.265625 L 48.882812 101.617188 "/>
<path style="fill:none;stroke-width:1.2;stroke-linecap:butt;stroke-linejoin:miter;stroke:rgb(0%,0%,0%);stroke-opacity:1;stroke-miterlimit:10;" d="M 48.882812 101.617188 L 72.457031 99.488281 "/>
<path style="fill:none;stroke-width:1.2;stroke-linecap:butt;stroke-linejoin:miter;stroke:rgb(0%,0%,0%);stroke-opacity:1;stroke-miterlimit:10;" d="M 51.738281 106.953125 L 70.601562 105.25 "/>
<path style="fill:none;stroke-width:1.2;stroke-linecap:butt;stroke-linejoin:miter;stroke:rgb(0%,0%,100%);stroke-opacity:1;stroke-miterlimit:10;" d="M 38.9375 123.097656 L 43.910156 112.359375 "/>
<path style="fill:none;stroke-width:1.2;stroke-linecap:butt;stroke-linejoin:miter;stroke:rgb(0%,0%,0%);stroke-opacity:1;stroke-miterlimit:10;" d="M 43.910156 112.359375 L 48.882812 101.617188 "/>
<path style="fill:none;stroke-width:1.2;stroke-linecap:butt;stroke-linejoin:miter;stroke:rgb(0%,0%,0%);stroke-opacity:1;stroke-miterlimit:10;" d="M 72.457031 99.488281 L 79.273438 109.164062 "/>
<path style="fill:none;stroke-width:1.2;stroke-linecap:butt;stroke-linejoin:miter;stroke:rgb(0%,0%,100%);stroke-opacity:1;stroke-miterlimit:10;" d="M 79.273438 109.164062 L 86.089844 118.84375 "/>
<path style="fill:none;stroke-width:1.2;stroke-linecap:butt;stroke-linejoin:miter;stroke:rgb(0%,0%,100%);stroke-opacity:1;stroke-miterlimit:10;" d="M 86.089844 118.84375 L 81.117188 129.582031 "/>
<path style="fill:none;stroke-width:1.2;stroke-linecap:butt;stroke-linejoin:miter;stroke:rgb(0%,0%,0%);stroke-opacity:1;stroke-miterlimit:10;" d="M 81.117188 129.582031 L 76.144531 140.324219 "/>
<path style="fill:none;stroke-width:1.2;stroke-linecap:butt;stroke-linejoin:miter;stroke:rgb(0%,0%,100%);stroke-opacity:1;stroke-miterlimit:10;" d="M 80.039062 118.648438 L 76.0625 127.242188 "/>
<path style="fill:none;stroke-width:1.2;stroke-linecap:butt;stroke-linejoin:miter;stroke:rgb(0%,0%,0%);stroke-opacity:1;stroke-miterlimit:10;" d="M 76.0625 127.242188 L 72.082031 135.835938 "/>
<path style=" stroke:none;fill-rule:nonzero;fill:rgb(100%,100%,100%);fill-opacity:1;" d="M 83.089844 113.34375 L 90.089844 113.34375 L 90.089844 124.34375 L 83.089844 124.34375 Z M 83.089844 113.34375 "/>
<g style="fill:rgb(0%,0%,100%);fill-opacity:1;">
  <use xlink:href="#glyph0-1" x="83.089844" y="122.006836"/>
</g>
<path style="fill:none;stroke-width:1.2;stroke-linecap:butt;stroke-linejoin:miter;stroke:rgb(0%,0%,0%);stroke-opacity:1;stroke-miterlimit:10;" d="M 76.144531 140.324219 L 52.566406 142.453125 "/>
<path style="fill:none;stroke-width:1.2;stroke-linecap:butt;stroke-linejoin:miter;stroke:rgb(0%,0%,0%);stroke-opacity:1;stroke-miterlimit:10;" d="M 76.144531 140.324219 L 89.773438 159.675781 "/>
<path style="fill:none;stroke-width:1.2;stroke-linecap:butt;stroke-linejoin:miter;stroke:rgb(0%,0%,0%);stroke-opacity:1;stroke-miterlimit:10;" d="M 52.566406 142.453125 L 45.75 132.773438 "/>
<path style="fill:none;stroke-width:1.2;stroke-linecap:butt;stroke-linejoin:miter;stroke:rgb(0%,0%,100%);stroke-opacity:1;stroke-miterlimit:10;" d="M 45.75 132.773438 L 38.9375 123.097656 "/>
<path style="fill:none;stroke-width:1.2;stroke-linecap:butt;stroke-linejoin:miter;stroke:rgb(0%,0%,0%);stroke-opacity:1;stroke-miterlimit:10;" d="M 55.757812 137.308594 L 50.304688 129.566406 "/>
<path style="fill:none;stroke-width:1.2;stroke-linecap:butt;stroke-linejoin:miter;stroke:rgb(0%,0%,100%);stroke-opacity:1;stroke-miterlimit:10;" d="M 50.304688 129.566406 L 44.851562 121.828125 "/>
<path style=" stroke:none;fill-rule:nonzero;fill:rgb(100%,100%,100%);fill-opacity:1;" d="M 35.9375 117.597656 L 42.9375 117.597656 L 42.9375 128.597656 L 35.9375 128.597656 Z M 35.9375 117.597656 "/>
<g style="fill:rgb(0%,0%,100%);fill-opacity:1;">
  <use xlink:href="#glyph0-1" x="35.9375" y="126.260742"/>
</g>
<path style="fill:none;stroke-width:1.2;stroke-linecap:butt;stroke-linejoin:miter;stroke:rgb(0%,0%,0%);stroke-opacity:1;stroke-miterlimit:10;" d="M 89.773438 159.675781 L 101.5625 158.613281 "/>
<path style="fill:none;stroke-width:1.2;stroke-linecap:butt;stroke-linejoin:miter;stroke:rgb(0%,0%,100%);stroke-opacity:1;stroke-miterlimit:10;" d="M 101.5625 158.613281 L 113.351562 157.546875 "/>
<path style="fill:none;stroke-width:1.2;stroke-linecap:butt;stroke-linejoin:miter;stroke:rgb(0%,0%,100%);stroke-opacity:1;stroke-miterlimit:10;" d="M 113.351562 157.546875 L 120.164062 167.226562 "/>
<path style="fill:none;stroke-width:1.2;stroke-linecap:butt;stroke-linejoin:miter;stroke:rgb(0%,0%,0%);stroke-opacity:1;stroke-miterlimit:10;" d="M 120.164062 167.226562 L 126.980469 176.902344 "/>
<path style=" stroke:none;fill-rule:nonzero;fill:rgb(100%,100%,100%);fill-opacity:1;" d="M 106.351562 152.046875 L 120.351562 152.046875 L 120.351562 163.046875 L 106.351562 163.046875 Z M 106.351562 152.046875 "/>
<g style="fill:rgb(0%,0%,100%);fill-opacity:1;">
  <use xlink:href="#glyph0-1" x="106.351562" y="160.709961"/>
  <use xlink:href="#glyph0-2" x="113.329102" y="160.709961"/>
</g>
<path style="fill:none;stroke-width:1.2;stroke-linecap:butt;stroke-linejoin:miter;stroke:rgb(0%,0%,0%);stroke-opacity:1;stroke-miterlimit:10;" d="M 126.980469 176.902344 L 122.007812 187.640625 "/>
<path style="fill:none;stroke-width:1.2;stroke-linecap:butt;stroke-linejoin:miter;stroke:rgb(0%,0%,100%);stroke-opacity:1;stroke-miterlimit:10;" d="M 122.007812 187.640625 L 117.035156 198.382812 "/>
<path style="fill:none;stroke-width:1.2;stroke-linecap:butt;stroke-linejoin:miter;stroke:rgb(0%,0%,0%);stroke-opacity:1;stroke-miterlimit:10;" d="M 131.042969 181.390625 L 127.0625 189.980469 "/>
<path style="fill:none;stroke-width:1.2;stroke-linecap:butt;stroke-linejoin:miter;stroke:rgb(0%,0%,100%);stroke-opacity:1;stroke-miterlimit:10;" d="M 127.0625 189.980469 L 123.085938 198.574219 "/>
<path style="fill:none;stroke-width:1.2;stroke-linecap:butt;stroke-linejoin:miter;stroke:rgb(0%,0%,0%);stroke-opacity:1;stroke-miterlimit:10;" d="M 150.558594 174.773438 L 126.980469 176.902344 "/>
<path style="fill:none;stroke-width:1.2;stroke-linecap:butt;stroke-linejoin:miter;stroke:rgb(0%,0%,100%);stroke-opacity:1;stroke-miterlimit:10;" d="M 117.035156 198.382812 L 123.851562 208.058594 "/>
<path style="fill:none;stroke-width:1.2;stroke-linecap:butt;stroke-linejoin:miter;stroke:rgb(0%,0%,0%);stroke-opacity:1;stroke-miterlimit:10;" d="M 123.851562 208.058594 L 130.667969 217.734375 "/>
<path style=" stroke:none;fill-rule:nonzero;fill:rgb(100%,100%,100%);fill-opacity:1;" d="M 114.035156 192.882812 L 121.035156 192.882812 L 121.035156 203.882812 L 114.035156 203.882812 Z M 114.035156 192.882812 "/>
<g style="fill:rgb(0%,0%,100%);fill-opacity:1;">
  <use xlink:href="#glyph0-1" x="114.035156" y="201.545898"/>
</g>
<path style="fill:none;stroke-width:1.2;stroke-linecap:butt;stroke-linejoin:miter;stroke:rgb(0%,0%,0%);stroke-opacity:1;stroke-miterlimit:10;" d="M 130.667969 217.734375 L 142.457031 216.671875 "/>
<path style="fill:none;stroke-width:1.2;stroke-linecap:butt;stroke-linejoin:miter;stroke:rgb(0%,0%,100%);stroke-opacity:1;stroke-miterlimit:10;" d="M 142.457031 216.671875 L 154.242188 215.609375 "/>
<path style="fill:none;stroke-width:1.2;stroke-linecap:butt;stroke-linejoin:miter;stroke:rgb(0%,0%,0%);stroke-opacity:1;stroke-miterlimit:10;" d="M 132.523438 211.976562 L 141.953125 211.125 "/>
<path style="fill:none;stroke-width:1.2;stroke-linecap:butt;stroke-linejoin:miter;stroke:rgb(0%,0%,100%);stroke-opacity:1;stroke-miterlimit:10;" d="M 141.953125 211.125 L 151.386719 210.273438 "/>
<path style="fill:none;stroke-width:1.2;stroke-linecap:butt;stroke-linejoin:miter;stroke:rgb(0%,0%,100%);stroke-opacity:1;stroke-miterlimit:10;" d="M 154.242188 215.609375 L 159.214844 204.867188 "/>
<path style="fill:none;stroke-width:1.2;stroke-linecap:butt;stroke-linejoin:miter;stroke:rgb(0%,0%,0%);stroke-opacity:1;stroke-miterlimit:10;" d="M 159.214844 204.867188 L 164.1875 194.125 "/>
<path style=" stroke:none;fill-rule:nonzero;fill:rgb(100%,100%,100%);fill-opacity:1;" d="M 151.242188 210.109375 L 158.242188 210.109375 L 158.242188 221.109375 L 151.242188 221.109375 Z M 151.242188 210.109375 "/>
<g style="fill:rgb(0%,0%,100%);fill-opacity:1;">
  <use xlink:href="#glyph0-1" x="151.242188" y="218.772461"/>
</g>
<path style="fill:none;stroke-width:1.2;stroke-linecap:butt;stroke-linejoin:miter;stroke:rgb(0%,0%,0%);stroke-opacity:1;stroke-miterlimit:10;" d="M 164.1875 194.125 L 150.558594 174.773438 "/>
<path style="fill:none;stroke-width:1.2;stroke-linecap:butt;stroke-linejoin:miter;stroke:rgb(0%,0%,0%);stroke-opacity:1;stroke-miterlimit:10;" d="M 167.378906 188.984375 L 156.472656 173.5 "/>
<path style="fill:none;stroke-width:1.2;stroke-linecap:butt;stroke-linejoin:miter;stroke:rgb(0%,0%,0%);stroke-opacity:1;stroke-miterlimit:10;" d="M 187.765625 191.996094 L 164.1875 194.125 "/>
<path style="fill:none;stroke-width:1.2;stroke-linecap:butt;stroke-linejoin:miter;stroke:rgb(0%,0%,0%);stroke-opacity:1;stroke-miterlimit:10;" d="M 150.558594 174.773438 L 160.5 153.292969 "/>
<path style="fill:none;stroke-width:1.2;stroke-linecap:butt;stroke-linejoin:miter;stroke:rgb(0%,0%,0%);stroke-opacity:1;stroke-miterlimit:10;" d="M 160.5 153.292969 L 184.078125 151.164062 "/>
<path style="fill:none;stroke-width:1.2;stroke-linecap:butt;stroke-linejoin:miter;stroke:rgb(0%,0%,0%);stroke-opacity:1;stroke-miterlimit:10;" d="M 163.359375 158.625 L 182.222656 156.921875 "/>
<path style="fill:none;stroke-width:1.2;stroke-linecap:butt;stroke-linejoin:miter;stroke:rgb(0%,0%,0%);stroke-opacity:1;stroke-miterlimit:10;" d="M 184.078125 151.164062 L 197.707031 170.515625 "/>
<path style="fill:none;stroke-width:1.2;stroke-linecap:butt;stroke-linejoin:miter;stroke:rgb(0%,0%,0%);stroke-opacity:1;stroke-miterlimit:10;" d="M 184.078125 151.164062 L 194.023438 129.683594 "/>
<path style="fill:none;stroke-width:1.2;stroke-linecap:butt;stroke-linejoin:miter;stroke:rgb(0%,0%,0%);stroke-opacity:1;stroke-miterlimit:10;" d="M 197.707031 170.515625 L 187.765625 191.996094 "/>
<path style="fill:none;stroke-width:1.2;stroke-linecap:butt;stroke-linejoin:miter;stroke:rgb(0%,0%,0%);stroke-opacity:1;stroke-miterlimit:10;" d="M 191.660156 170.324219 L 183.703125 187.511719 "/>
<path style="fill:none;stroke-width:1.2;stroke-linecap:butt;stroke-linejoin:miter;stroke:rgb(0%,0%,0%);stroke-opacity:1;stroke-miterlimit:10;" d="M 194.023438 129.683594 L 217.597656 127.554688 "/>
<path style="fill:none;stroke-width:1.2;stroke-linecap:butt;stroke-linejoin:miter;stroke:rgb(0%,0%,0%);stroke-opacity:1;stroke-miterlimit:10;" d="M 195.878906 123.921875 L 214.738281 122.21875 "/>
<path style="fill:none;stroke-width:1.2;stroke-linecap:butt;stroke-linejoin:miter;stroke:rgb(0%,0%,0%);stroke-opacity:1;stroke-miterlimit:10;" d="M 180.390625 110.328125 L 194.023438 129.683594 "/>
<path style="fill:none;stroke-width:1.2;stroke-linecap:butt;stroke-linejoin:miter;stroke:rgb(0%,0%,0%);stroke-opacity:1;stroke-miterlimit:10;" d="M 217.597656 127.554688 L 227.542969 106.070312 "/>
<path style="fill:none;stroke-width:1.2;stroke-linecap:butt;stroke-linejoin:miter;stroke:rgb(0%,0%,0%);stroke-opacity:1;stroke-miterlimit:10;" d="M 227.542969 106.070312 L 213.910156 86.71875 "/>
<path style="fill:none;stroke-width:1.2;stroke-linecap:butt;stroke-linejoin:miter;stroke:rgb(0%,0%,0%);stroke-opacity:1;stroke-miterlimit:10;" d="M 221.625 107.34375 L 210.722656 91.863281 "/>
<path style="fill:none;stroke-width:1.2;stroke-linecap:butt;stroke-linejoin:miter;stroke:rgb(0%,0%,0%);stroke-opacity:1;stroke-miterlimit:10;" d="M 227.542969 106.070312 L 239.332031 105.007812 "/>
<path style="fill:none;stroke-width:1.2;stroke-linecap:butt;stroke-linejoin:miter;stroke:rgb(100%,0%,0%);stroke-opacity:1;stroke-miterlimit:10;" d="M 239.332031 105.007812 L 251.117188 103.945312 "/>
<path style="fill:none;stroke-width:1.2;stroke-linecap:butt;stroke-linejoin:miter;stroke:rgb(0%,0%,0%);stroke-opacity:1;stroke-miterlimit:10;" d="M 213.910156 86.71875 L 190.335938 88.847656 "/>
<path style="fill:none;stroke-width:1.2;stroke-linecap:butt;stroke-linejoin:miter;stroke:rgb(0%,0%,0%);stroke-opacity:1;stroke-miterlimit:10;" d="M 190.335938 88.847656 L 180.390625 110.328125 "/>
<path style="fill:none;stroke-width:1.2;stroke-linecap:butt;stroke-linejoin:miter;stroke:rgb(0%,0%,0%);stroke-opacity:1;stroke-miterlimit:10;" d="M 194.394531 93.335938 L 186.441406 110.519531 "/>
<path style="fill:none;stroke-width:1.2;stroke-linecap:butt;stroke-linejoin:miter;stroke:rgb(100%,0%,0%);stroke-opacity:1;stroke-miterlimit:10;" d="M 251.117188 103.945312 L 257.933594 113.621094 "/>
<path style="fill:none;stroke-width:1.2;stroke-linecap:butt;stroke-linejoin:miter;stroke:rgb(0%,0%,0%);stroke-opacity:1;stroke-miterlimit:10;" d="M 257.933594 113.621094 L 264.75 123.296875 "/>
<path style=" stroke:none;fill-rule:nonzero;fill:rgb(100%,100%,100%);fill-opacity:1;" d="M 247.117188 98.445312 L 255.117188 98.445312 L 255.117188 109.445312 L 247.117188 109.445312 Z M 247.117188 98.445312 "/>
<g style="fill:rgb(100%,0%,0%);fill-opacity:1;">
  <use xlink:href="#glyph0-3" x="247.117188" y="107.108398"/>
</g>
</g>
</svg>

<svg xmlns="http://www.w3.org/2000/svg" xmlns:xlink="http://www.w3.org/1999/xlink" width="300pt" height="300pt" viewBox="0 0 300 300"><defs><symbol overflow="visible"><path d="M.453 1.594v-7.938h4.5v7.938zm.5-.5h3.5v-6.938h-3.5zm0 0"/></symbol><symbol overflow="visible" id="a"><path d="M.89-6.563H2.08l2.906 5.485v-5.484h.86V0H4.656L1.75-5.484V0H.89zm0 0"/></symbol><symbol overflow="visible" id="b"><path d="M.89-6.563h.876v2.688H5v-2.688h.89V0H5v-3.125H1.766V0H.89zm0 0"/></symbol><symbol overflow="visible" id="c"><path d="M3.547-5.953c-.65 0-1.164.242-1.547.72-.375.48-.563 1.13-.563 1.952 0 .835.188 1.49.563 1.967.383.48.898.72 1.547.72.644 0 1.156-.24 1.53-.72.376-.476.564-1.132.564-1.968 0-.822-.187-1.474-.562-1.954-.375-.477-.887-.72-1.53-.72zm0-.734c.914 0 1.648.312 2.203.937.55.617.828 1.438.828 2.47 0 1.042-.277 1.87-.828 2.483-.555.617-1.29.922-2.203.922-.93 0-1.668-.305-2.22-.922C.774-1.41.5-2.237.5-3.28c0-1.033.273-1.853.828-2.47.55-.625 1.29-.938 2.22-.938zm0 0"/></symbol></defs><g><path fill="#fff" d="M0 0h300v300H0z"/><path d="M35.25 82.266l13.633 19.35M48.883 101.617l23.574-2.13M51.738 106.953l18.864-1.703" stroke-width="1.2" stroke="#000" stroke-miterlimit="10" fill="none"/><path d="M38.938 123.098l4.972-10.74" stroke-width="1.2" stroke="#00f" stroke-miterlimit="10" fill="none"/><path d="M43.91 112.36l4.973-10.743M72.457 99.488l6.816 9.676" stroke-width="1.2" stroke="#000" stroke-miterlimit="10" fill="none"/><path d="M79.273 109.164l6.817 9.68M86.09 118.844l-4.973 10.738" stroke-width="1.2" stroke="#00f" stroke-miterlimit="10" fill="none"/><path d="M81.117 129.582l-4.972 10.742" stroke-width="1.2" stroke="#000" stroke-miterlimit="10" fill="none"/><path d="M80.04 118.648l-3.978 8.594" stroke-width="1.2" stroke="#00f" stroke-miterlimit="10" fill="none"/><path d="M76.063 127.242l-3.98 8.594" stroke-width="1.2" stroke="#000" stroke-miterlimit="10" fill="none"/><path d="M83.09 113.344h7v11h-7zm0 0" fill="#fff"/><use xlink:href="#a" x="83.09" y="122.007" fill="#00f"/><path d="M76.145 140.324l-23.58 2.13M76.145 140.324l13.628 19.352M52.566 142.453l-6.816-9.68" stroke-width="1.2" stroke="#000" stroke-miterlimit="10" fill="none"/><path d="M45.75 132.773l-6.813-9.675" stroke-width="1.2" stroke="#00f" stroke-miterlimit="10" fill="none"/><path d="M55.758 137.31l-5.453-7.744" stroke-width="1.2" stroke="#000" stroke-miterlimit="10" fill="none"/><path d="M50.305 129.566l-5.453-7.738" stroke-width="1.2" stroke="#00f" stroke-miterlimit="10" fill="none"/><path d="M35.938 117.598h7v11h-7zm0 0" fill="#fff"/><use xlink:href="#a" x="35.938" y="126.261" fill="#00f"/><path d="M89.773 159.676l11.79-1.063" stroke-width="1.2" stroke="#000" stroke-miterlimit="10" fill="none"/><path d="M101.563 158.613l11.79-1.066M113.352 157.547l6.812 9.68" stroke-width="1.2" stroke="#00f" stroke-miterlimit="10" fill="none"/><path d="M120.164 167.227l6.816 9.675" stroke-width="1.2" stroke="#000" stroke-miterlimit="10" fill="none"/><path d="M106.352 152.047h14v11h-14zm0 0" fill="#fff"/><g fill="#00f"><use xlink:href="#a" x="106.352" y="160.71"/><use xlink:href="#b" x="113.329" y="160.71"/></g><path d="M126.98 176.902l-4.972 10.74" stroke-width="1.2" stroke="#000" stroke-miterlimit="10" fill="none"/><path d="M122.008 187.64l-4.973 10.743" stroke-width="1.2" stroke="#00f" stroke-miterlimit="10" fill="none"/><path d="M131.043 181.39l-3.98 8.59" stroke-width="1.2" stroke="#000" stroke-miterlimit="10" fill="none"/><path d="M127.063 189.98l-3.977 8.594" stroke-width="1.2" stroke="#00f" stroke-miterlimit="10" fill="none"/><path d="M150.56 174.773l-23.58 2.13" stroke-width="1.2" stroke="#000" stroke-miterlimit="10" fill="none"/><path d="M117.035 198.383l6.817 9.676" stroke-width="1.2" stroke="#00f" stroke-miterlimit="10" fill="none"/><path d="M123.852 208.06l6.816 9.674" stroke-width="1.2" stroke="#000" stroke-miterlimit="10" fill="none"/><path d="M114.035 192.883h7v11h-7zm0 0" fill="#fff"/><use xlink:href="#a" x="114.035" y="201.546" fill="#00f"/><path d="M130.668 217.734l11.79-1.062" stroke-width="1.2" stroke="#000" stroke-miterlimit="10" fill="none"/><path d="M142.457 216.672l11.785-1.063" stroke-width="1.2" stroke="#00f" stroke-miterlimit="10" fill="none"/><path d="M132.523 211.977l9.43-.852" stroke-width="1.2" stroke="#000" stroke-miterlimit="10" fill="none"/><path d="M141.953 211.125l9.434-.852M154.242 215.61l4.973-10.743" stroke-width="1.2" stroke="#00f" stroke-miterlimit="10" fill="none"/><path d="M159.215 204.867l4.972-10.742" stroke-width="1.2" stroke="#000" stroke-miterlimit="10" fill="none"/><path d="M151.242 210.11h7v11h-7zm0 0" fill="#fff"/><use xlink:href="#a" x="151.242" y="218.772" fill="#00f"/><path d="M164.188 194.125l-13.63-19.352M167.38 188.984L156.472 173.5M187.766 191.996l-23.578 2.13M150.56 174.773l9.94-21.48M160.5 153.293l23.578-2.13M163.36 158.625l18.863-1.703M184.078 151.164l13.63 19.352M184.078 151.164l9.945-21.48M197.707 170.516l-9.94 21.48M191.66 170.324l-7.957 17.188M194.023 129.684l23.575-2.13M195.88 123.922l18.858-1.703M180.39 110.328l13.633 19.356M217.598 127.555l9.945-21.485M227.543 106.07L213.91 86.72M221.625 107.344l-10.902-15.48M227.543 106.07l11.79-1.062" stroke-width="1.2" stroke="#000" stroke-miterlimit="10" fill="none"/><path d="M239.332 105.008l11.785-1.063" stroke-width="1.2" stroke="#f00" stroke-miterlimit="10" fill="none"/><path d="M213.91 86.72l-23.574 2.128M190.336 88.848l-9.945 21.48M194.395 93.336l-7.954 17.184" stroke-width="1.2" stroke="#000" stroke-miterlimit="10" fill="none"/><path d="M251.117 103.945l6.817 9.676" stroke-width="1.2" stroke="#f00" stroke-miterlimit="10" fill="none"/><path d="M257.934 113.62l6.816 9.677" stroke-width="1.2" stroke="#000" stroke-miterlimit="10" fill="none"/><path d="M247.117 98.445h8v11h-8zm0 0" fill="#fff"/><use xlink:href="#c" x="247.117" y="107.108" fill="#f00"/></g></svg>
